src/About/images/steam.svg

﻿<svg xmlns="http://www.w3.org/2000/svg" xmlns:xlink="http://www.w3.org/1999/xlink" viewBox="0 0 50 50" version="1.1" width="50" height="50" style="fill: #fefeff;">
<g id="surface1">
<path style=" " d="M 11 2 C 6 2 2 6 2 11 L 2 25.3125 L 2.4375 25.5 L 9.8125 28.9375 C 11.277344 27.148438 13.507813 26 16 26 C 16.785156 26 17.535156 26.101563 18.25 26.3125 L 22.40625 20.78125 C 22.148438 19.894531 22 18.972656 22 18 C 22 12.476563 26.476563 8 32 8 C 37.523438 8 42 12.476563 42 18 C 42 23.523438 37.523438 28 32 28 C 30.960938 28 29.941406 27.828125 29 27.53125 L 23.65625 31.71875 C 23.875 32.445313 24 33.203125 24 34 C 24 38.417969 20.417969 42 16 42 C 11.582031 42 8 38.417969 8 34 C 8 33.503906 8.070313 33.035156 8.15625 32.5625 L 2 29.6875 L 2 39 C 2 44 6 48 11 48 L 39 48 C 44 48 48 44 48 39 L 48 11 C 48 6 44 2 39 2 Z M 32 12 C 28.699219 12 26 14.699219 26 18 C 26 21.300781 28.699219 24 32 24 C 35.300781 24 38 21.300781 38 18 C 38 14.699219 35.300781 12 32 12 Z M 32 14 C 34.222656 14 36 15.777344 36 18 C 36 20.222656 34.222656 22 32 22 C 29.777344 22 28 20.222656 28 18 C 28 15.777344 29.777344 14 32 14 Z M 16 30 C 15.144531 30 14.367188 30.289063 13.71875 30.75 L 16.6875 32.125 C 17.453125 32.40625 18 33.136719 18 34 C 18 34.703125 17.644531 35.332031 17.09375 35.6875 C 17.054688 35.714844 16.980469 35.726563 16.9375 35.75 C 16.84375 35.800781 16.757813 35.839844 16.65625 35.875 C 16.597656 35.894531 16.53125 35.921875 16.46875 35.9375 C 16.316406 35.976563 16.167969 36 16 36 C 15.863281 36 15.578125 36.003906 15.28125 35.875 C 15.195313 35.839844 15.113281 35.796875 15.03125 35.75 L 12.03125 34.34375 C 12.214844 36.382813 13.914063 38 16 38 C 18.207031 38 20 36.207031 20 34 C 20 31.792969 18.207031 30 16 30 Z "/>
</g>
</svg>

﻿<?xml version="1.0" encoding="UTF-8"?>
<svg fill="#fefeff" version="1.1" viewBox="0 0 50 50" xmlns="http://www.w3.org/2000/svg">
<path d="m11 2c-5 0-9 4-9 9v14.312l0.4375 0.1875 7.375 3.4375c1.4648-1.7891 3.6953-2.9375 6.1875-2.9375 0.78516 0 1.5352 0.10156 2.25 0.3125l4.1562-5.5312c-0.25781-0.88672-0.40625-1.8086-0.40625-2.7812 0-5.5234 4.4766-10 10-10 5.5234 0 10 4.4766 10 10 0 5.5234-4.4766 10-10 10-1.0391 0-2.0586-0.17188-3-0.46875l-5.3438 4.1875c0.21875 0.72656 0.34375 1.4844 0.34375 2.2812 0 4.418-3.582 8-8 8s-8-3.582-8-8c0-0.49609 0.070313-0.96484 0.15625-1.4375l-6.1562-2.875v9.3125c0 5 4 9 9 9h28c5 0 9-4 9-9v-28c0-5-4-9-9-9zm21 10c-3.3008 0-6 2.6992-6 6s2.6992 6 6 6 6-2.6992 6-6-2.6992-6-6-6zm0 2c2.2227 0 4 1.7773 4 4s-1.7773 4-4 4-4-1.7773-4-4 1.7773-4 4-4zm-16 16c-0.85547 0-1.6328 0.28906-2.2812 0.75l2.9688 1.375c0.76562 0.28125 1.3125 1.0117 1.3125 1.875 0 0.70312-0.35547 1.332-0.90625 1.6875-0.039062 0.027344-0.11328 0.039063-0.15625 0.0625-0.09375 0.050781-0.17969 0.089844-0.28125 0.125-0.058594 0.019531-0.125 0.046875-0.1875 0.0625-0.15234 0.039063-0.30078 0.0625-0.46875 0.0625-0.13672 0-0.42188 0.003906-0.71875-0.125-0.085937-0.035156-0.16797-0.078125-0.25-0.125l-3-1.4062c0.18359 2.0391 1.8828 3.6562 3.9688 3.6562 2.207 0 4-1.793 4-4s-1.793-4-4-4z"/>
</svg>
